src/assets/icons/Postman.svg

<svg width="48" height="49" viewBox="0 0 48 49" fill="none" xmlns="http://www.w3.org/2000/svg">
<g clip-path="url(#clip0_102_490)">
<path d="M47.8037 27.1412C49.4835 13.9916 40.197 1.96969 27.0714 0.290062C13.9459 -1.38975 1.87594 7.89675 0.196312 21.0223C-1.4835 34.1479 7.803 46.1938 20.9286 47.8974C34.0781 49.5773 46.1001 40.2907 47.8037 27.1412Z" fill="var(--text)"/>
<path d="M32.6625 15.5032L22.5362 25.6296L19.6808 22.7739C29.6389 12.8158 30.6229 13.6796 32.6625 15.5032Z" fill="var(--background)"/>
<path d="M22.5362 25.8694C22.4642 25.8694 22.4162 25.8454 22.3684 25.7974L19.4887 22.9419C19.466 22.9203 19.4479 22.8942 19.4355 22.8653C19.4231 22.8365 19.4167 22.8054 19.4167 22.7739C19.4167 22.7425 19.4231 22.7114 19.4355 22.6825C19.4479 22.6537 19.466 22.6276 19.4887 22.6059C29.6151 12.4798 30.6709 13.4396 32.8065 15.3592C32.8543 15.4072 32.8783 15.4552 32.8783 15.5272C32.8783 15.5992 32.8543 15.6473 32.8065 15.6953L22.6802 25.7974C22.6562 25.8454 22.5842 25.8694 22.5362 25.8694ZM20.0167 22.7739L22.5362 25.2936L32.3025 15.5272C30.5269 13.9436 29.3269 13.4634 20.0167 22.7739Z" fill="var(--text)"/>
<path d="M25.4398 28.533L22.6802 25.7734L32.8065 15.6472C35.5177 18.3829 31.4627 22.8219 25.4396 28.533H25.4398Z" fill="var(--background)"/>
<path d="M25.4398 28.773C25.3678 28.773 25.3198 28.749 25.2718 28.701L22.5122 25.9414C22.4642 25.8934 22.4642 25.8454 22.4642 25.7734C22.4642 25.7014 22.4882 25.6534 22.5362 25.6056L32.6625 15.4792C32.6842 15.4565 32.7102 15.4384 32.7391 15.4261C32.768 15.4137 32.799 15.4073 32.8304 15.4073C32.8618 15.4073 32.8929 15.4137 32.9218 15.4261C32.9506 15.4384 32.9767 15.4565 32.9983 15.4792C33.3047 15.7628 33.5468 16.1087 33.7082 16.4936C33.8696 16.8786 33.9467 17.2936 33.9341 17.7109C33.8861 20.3745 30.8629 23.7577 25.6316 28.701C25.5598 28.749 25.4878 28.773 25.4398 28.773ZM23.0162 25.7734C24.5518 27.3332 25.1998 27.957 25.4398 28.197C29.4711 24.3577 33.3823 20.4225 33.4063 17.7109C33.4303 17.0871 33.1903 16.4631 32.7825 15.9832L23.0162 25.7734Z" fill="var(--text)"/>
<path d="M19.7287 22.8459L21.7684 24.8856C21.8164 24.9336 21.8164 24.9816 21.7684 25.0296C21.7444 25.0536 21.7444 25.0536 21.7204 25.0536L17.4971 25.9654C17.2811 25.9894 17.0893 25.8454 17.0413 25.6296C17.0173 25.5096 17.0653 25.3896 17.1373 25.3176L19.5847 22.8699C19.6327 22.8219 19.7047 22.7979 19.7287 22.8459Z" fill="var(--background)"/>
<path d="M17.4251 26.2054C17.0651 26.2054 16.8013 25.9174 16.8013 25.5576C16.8013 25.3896 16.8733 25.2216 16.9933 25.1016L19.4407 22.6539C19.5847 22.5339 19.7767 22.5339 19.9207 22.6539L21.9604 24.6936C22.1044 24.8136 22.1044 25.0296 21.9604 25.1736C21.9124 25.2216 21.8644 25.2456 21.7924 25.2696L17.5691 26.1814C17.5211 26.1814 17.4731 26.2054 17.4251 26.2054ZM19.6567 23.1097L17.3051 25.4616C17.2571 25.5096 17.2333 25.5816 17.2811 25.6536C17.3051 25.7254 17.3771 25.7494 17.4491 25.7254L21.4084 24.8616L19.6567 23.1097Z" fill="var(--text)"/>
<path d="M38.0135 9.88838C36.4777 8.40057 34.0061 8.44857 32.5185 10.0084C31.0307 11.568 31.0787 14.0156 32.6385 15.5033C33.2541 16.0982 34.0493 16.4726 34.9001 16.5681C35.7509 16.6636 36.6093 16.4748 37.3415 16.0313L34.6059 13.2956L38.0135 9.88838Z" fill="var(--background)"/>
<path d="M35.3259 16.8231C33.0463 16.8231 31.1987 14.9754 31.1987 12.6958C31.1987 10.4162 33.0463 8.56857 35.3259 8.56857C36.3818 8.56857 37.4136 8.97657 38.1816 9.72039C38.2294 9.76839 38.2534 9.81639 38.2534 9.88839C38.2534 9.96039 38.2294 10.0084 38.1814 10.0562L34.9419 13.2956L37.4856 15.8393C37.5816 15.9353 37.5816 16.0793 37.4856 16.1753L37.4376 16.2233C36.8138 16.6071 36.0698 16.8231 35.3259 16.8231ZM35.3259 9.07239C33.3103 9.07239 31.6787 10.7042 31.7027 12.7198C31.7027 14.7354 33.3343 16.3671 35.3499 16.3431C35.9019 16.3431 36.4538 16.2231 36.9578 15.9593L34.4381 13.4636C34.3901 13.4156 34.3661 13.3676 34.3661 13.2956C34.3661 13.2236 34.3901 13.1756 34.4381 13.1278L37.6536 9.9122C37.0056 9.36039 36.1898 9.07239 35.3259 9.07239Z" fill="var(--text)"/>
<path d="M38.0854 9.96038L38.0375 9.91238L34.6061 13.2956L37.3175 16.0073C37.5815 15.8393 37.8455 15.6473 38.0614 15.4313C38.4249 15.0752 38.7142 14.6505 38.9124 14.1818C39.1106 13.7131 39.2138 13.2097 39.216 12.7008C39.2182 12.192 39.1194 11.6877 38.9254 11.2173C38.7313 10.7469 38.4458 10.3196 38.0854 9.96038Z" fill="var(--background)"/>
<path d="M37.3416 16.2712C37.2696 16.2712 37.2216 16.2472 37.1736 16.1992L34.4381 13.4636C34.3901 13.4156 34.3661 13.3676 34.3661 13.2956C34.3661 13.2236 34.3901 13.1756 34.4381 13.1278L37.8456 9.72037C37.8672 9.69764 37.8933 9.67954 37.9221 9.66718C37.951 9.65481 37.9821 9.64844 38.0135 9.64844C38.0449 9.64844 38.0759 9.65481 38.1048 9.66718C38.1337 9.67954 38.1597 9.69764 38.1814 9.72037L38.2534 9.76837C39.8612 11.376 39.8612 13.9676 38.2774 15.5992C38.0374 15.8392 37.7736 16.0552 37.4856 16.2232C37.4136 16.2472 37.3656 16.2712 37.3416 16.2712ZM34.9419 13.2956L37.3656 15.7192C37.5576 15.5992 37.7496 15.4312 37.8936 15.2872C39.2612 13.9196 39.3332 11.688 38.0136 10.2482L34.9419 13.2956Z" fill="var(--text)"/>
<path d="M33.0703 15.9352C32.7933 15.6587 32.4179 15.5034 32.0265 15.5034C31.6351 15.5034 31.2597 15.6587 30.9827 15.9352L21.9364 24.9816L23.4482 26.4934L33.0223 18.0949C33.6463 17.5669 33.6943 16.6311 33.1663 16.0072C33.1183 15.9832 33.0943 15.9592 33.0703 15.9352Z" fill="var(--background)"/>
<path d="M23.4242 26.7332C23.3522 26.7332 23.3042 26.7092 23.2562 26.6614L21.7444 25.1496C21.7216 25.1279 21.7035 25.1018 21.6911 25.0729C21.6787 25.0441 21.6724 25.013 21.6724 24.9816C21.6724 24.9501 21.6787 24.919 21.6911 24.8902C21.7035 24.8613 21.7216 24.8352 21.7444 24.8136L30.7907 15.7672C30.9495 15.6075 31.1383 15.4808 31.3463 15.3943C31.5543 15.3079 31.7773 15.2633 32.0025 15.2633C32.2277 15.2633 32.4508 15.3079 32.6587 15.3943C32.8667 15.4808 33.0555 15.6075 33.2143 15.7672C33.374 15.9261 33.5008 16.1149 33.5872 16.3229C33.6737 16.5308 33.7182 16.7538 33.7182 16.9791C33.7182 17.2043 33.6737 17.4273 33.5872 17.6353C33.5008 17.8432 33.374 18.032 33.2143 18.1909L33.1423 18.2629L23.568 26.6614C23.544 26.7092 23.496 26.7332 23.4242 26.7332ZM22.2724 24.9816L23.448 26.1574L32.8543 17.9029C33.3823 17.4709 33.4303 16.6791 32.9983 16.1512C32.5665 15.6232 31.7747 15.5752 31.2467 16.0072C31.2227 16.0312 31.1987 16.0552 31.1507 16.0792L22.2724 24.9816Z" fill="var(--text)"/>
<path d="M15.0017 35.2757C14.9057 35.3237 14.8577 35.4197 14.8817 35.5157L15.2895 37.2433C15.3855 37.4833 15.2415 37.7713 14.9777 37.8433C14.7857 37.9153 14.5697 37.8433 14.4497 37.6993L11.8102 35.0837L20.4246 26.4694L23.4002 26.5174L25.4158 28.533C24.9358 28.9408 22.0324 31.7484 15.0017 35.2757Z" fill="var(--background)"/>
<path d="M14.8097 38.0831C14.6177 38.0831 14.4257 38.0113 14.3057 37.8673L11.6901 35.2517C11.6423 35.2037 11.6183 35.1557 11.6183 35.0837C11.6183 35.0119 11.6423 34.9637 11.6903 34.9159L20.3048 26.3014C20.3528 26.2534 20.4248 26.2294 20.4726 26.2294L23.4482 26.2774C23.52 26.2774 23.5682 26.3014 23.616 26.3494L25.6316 28.365C25.6796 28.413 25.7036 28.485 25.7036 28.557C25.7036 28.629 25.6796 28.677 25.6076 28.725L25.4398 28.8688C22.8962 31.1004 19.4408 33.3321 15.1457 35.4677L15.5535 37.1713C15.6255 37.4833 15.4815 37.8193 15.1935 37.9873C15.0497 38.0593 14.9297 38.0831 14.8097 38.0831ZM12.1701 35.0837L14.6417 37.5313C14.7137 37.6513 14.8577 37.6993 14.9777 37.6273C15.0977 37.5553 15.1457 37.4113 15.0737 37.2913L14.6657 35.5637C14.6177 35.3477 14.7137 35.1557 14.9057 35.0597C19.1529 32.9241 22.5842 30.7166 25.1038 28.5328L23.3282 26.7572L20.5686 26.7092L12.1701 35.0837Z" fill="var(--text)"/>
<path d="M9.77061 37.1475L11.8342 35.0837L14.9055 38.1551L10.0104 37.8193C9.79461 37.7953 9.65042 37.6033 9.67461 37.3873C9.67461 37.2913 9.69861 37.1955 9.77061 37.1475Z" fill="var(--background)"/>
<path d="M14.9057 38.3711L9.98643 38.0353C9.62643 38.0113 9.38662 37.6993 9.41062 37.3393C9.43462 37.1953 9.48262 37.0515 9.60262 36.9555L11.6662 34.8919C11.6879 34.8691 11.714 34.851 11.7428 34.8386C11.7717 34.8262 11.8028 34.8198 11.8342 34.8198C11.8657 34.8198 11.8968 34.8262 11.9256 34.8386C11.9545 34.851 11.9806 34.8691 12.0022 34.8919L15.0735 37.9631C15.1457 38.0353 15.1695 38.1313 15.1217 38.2271C15.0737 38.3231 15.0017 38.3711 14.9057 38.3711ZM11.8342 35.4199L9.93862 37.3155C9.86662 37.3633 9.86662 37.4833 9.93862 37.5313C9.96243 37.5553 9.98643 37.5793 10.0344 37.5793L14.2817 37.8673L11.8342 35.4197V35.4199ZM19.5847 27.5732C19.4407 27.5732 19.3447 27.4532 19.3447 27.3332C19.3447 27.2612 19.3687 27.2132 19.4167 27.1652L21.7444 24.8376C21.766 24.8148 21.7921 24.7967 21.821 24.7843C21.8499 24.7719 21.8809 24.7655 21.9124 24.7655C21.9438 24.7655 21.9749 24.7719 22.0038 24.7843C22.0326 24.7967 22.0587 24.8148 22.0804 24.8376L23.592 26.3494C23.664 26.4214 23.688 26.4934 23.664 26.5894C23.64 26.6614 23.568 26.7332 23.4722 26.7572L19.6327 27.5732H19.5847ZM21.9124 25.3416L20.3287 26.9252L22.9202 26.3734L21.9124 25.3416Z" fill="var(--text)"/>
<path d="M23.4 26.5174L20.7606 27.0932C20.5686 27.1412 20.3766 27.0212 20.3288 26.8292C20.3048 26.7092 20.3288 26.5892 20.4246 26.4934L21.8884 25.0296L23.4 26.5174Z" fill="var(--background)"/>
<path d="M20.7126 27.3332C20.6336 27.334 20.5552 27.319 20.482 27.2891C20.4089 27.2593 20.3424 27.2151 20.2865 27.1592C20.2307 27.1034 20.1865 27.0369 20.1566 26.9637C20.1267 26.8906 20.1118 26.8122 20.1126 26.7332C20.1126 26.5654 20.1848 26.4214 20.2808 26.3014L21.7444 24.8375C21.7661 24.8148 21.7921 24.7967 21.821 24.7843C21.8499 24.7719 21.881 24.7655 21.9124 24.7655C21.9438 24.7655 21.9749 24.7719 22.0038 24.7843C22.0327 24.7967 22.0587 24.8148 22.0804 24.8375L23.592 26.3494C23.664 26.4214 23.688 26.4934 23.664 26.5894C23.64 26.6614 23.568 26.7332 23.4722 26.7572L20.8326 27.3332H20.7126ZM21.9124 25.3416L20.6168 26.6372C20.5686 26.6854 20.5686 26.7332 20.5926 26.7812C20.6166 26.8292 20.6646 26.8532 20.7366 26.8532L22.9442 26.3732L21.9124 25.3416ZM38.1094 12.2638C38.0614 12.12 37.8936 12.048 37.7494 12.096C37.6056 12.1438 37.5336 12.3118 37.5816 12.456C37.5816 12.4798 37.6056 12.5038 37.6056 12.5278C37.7496 12.8158 37.7016 13.1756 37.5096 13.4396C37.4136 13.5596 37.4376 13.7276 37.5336 13.8236C37.6536 13.9196 37.8216 13.8956 37.9176 13.7756C38.2776 13.3196 38.3494 12.7438 38.1094 12.2638Z" fill="var(--text)"/>
</g>
<defs>
<clipPath id="clip0_102_490">
<rect width="48" height="48" fill="white" transform="translate(0 0.09375)"/>
</clipPath>
</defs>
</svg>

<svg xmlns="http://www.w3.org/2000/svg" width="48" height="49" fill="none" viewBox="0 0 48 49"><g clip-path="url(#clip0_102_490)"><path fill="var(--text)" d="M47.804 27.141C49.484 13.991 40.197 1.97 27.07.291 13.946-1.39 1.876 7.896.196 21.021S7.803 46.194 20.93 47.897c13.15 1.68 25.171-7.606 26.875-20.756"/><path fill="var(--background)" d="M32.663 15.503 22.536 25.63l-2.855-2.856c9.958-9.958 10.942-9.094 12.982-7.27"/><path fill="var(--text)" d="M22.536 25.87a.22.22 0 0 1-.168-.073l-2.88-2.855a.23.23 0 0 1 0-.336c10.127-10.126 11.183-9.166 13.319-7.247a.22.22 0 0 1 .071.168c0 .072-.024.12-.072.168L22.68 25.797c-.024.048-.096.072-.144.072m-2.52-3.096 2.52 2.52 9.767-9.767c-1.776-1.583-2.976-2.064-12.286 7.247"/><path fill="var(--background)" d="m25.44 28.533-2.76-2.76 10.127-10.126c2.71 2.736-1.344 7.175-7.367 12.886"/><path fill="var(--text)" d="M25.44 28.773a.22.22 0 0 1-.168-.072l-2.76-2.76c-.048-.048-.048-.096-.048-.168s.024-.12.072-.167l10.127-10.127a.23.23 0 0 1 .335 0 2.92 2.92 0 0 1 .936 2.232c-.048 2.664-3.071 6.047-8.302 10.99a.4.4 0 0 1-.192.072m-2.424-3c1.536 1.56 2.184 2.184 2.424 2.424 4.031-3.84 7.942-7.774 7.966-10.486.024-.624-.216-1.248-.623-1.728z"/><path fill="var(--background)" d="m19.729 22.846 2.04 2.04q.07.072 0 .144c-.025.024-.025.024-.049.024l-4.223.911a.42.42 0 0 1-.456-.335.36.36 0 0 1 .096-.312l2.448-2.448c.048-.048.12-.072.144-.024"/><path fill="var(--text)" d="M17.425 26.205c-.36 0-.624-.288-.624-.647 0-.168.072-.336.192-.456l2.448-2.448a.365.365 0 0 1 .48 0l2.04 2.04c.143.12.143.336 0 .48a.4.4 0 0 1-.169.096l-4.223.911c-.048 0-.096.024-.144.024m2.232-3.095-2.352 2.352c-.048.048-.072.12-.024.192.024.071.096.095.168.071l3.96-.863z"/><path fill="var(--background)" d="M38.014 9.888c-1.536-1.487-4.008-1.44-5.495.12a3.875 3.875 0 0 0 .12 5.495 3.88 3.88 0 0 0 4.703.528l-2.736-2.735z"/><path fill="var(--text)" d="M35.326 16.823a4.127 4.127 0 1 1 0-8.254c1.056 0 2.088.408 2.856 1.151a.22.22 0 0 1 .071.168c0 .072-.024.12-.072.168l-3.24 3.24 2.545 2.543a.23.23 0 0 1 0 .336l-.048.048c-.624.384-1.368.6-2.112.6m0-7.75a3.61 3.61 0 0 0-3.623 3.647 3.61 3.61 0 0 0 3.647 3.623c.552 0 1.104-.12 1.608-.384l-2.52-2.495a.22.22 0 0 1-.072-.168c0-.072.024-.12.072-.168l3.216-3.216a3.56 3.56 0 0 0-2.328-.84"/><path fill="var(--background)" d="m38.085 9.96-.047-.048-3.432 3.384 2.712 2.711a4.4 4.4 0 0 0 .743-.576 3.846 3.846 0 0 0 .024-5.47"/><path fill="var(--text)" d="M37.342 16.271a.22.22 0 0 1-.168-.072l-2.736-2.735a.22.22 0 0 1-.072-.168c0-.072.024-.12.072-.168l3.408-3.408a.23.23 0 0 1 .335 0l.072.048c1.608 1.608 1.608 4.2.024 5.831-.24.24-.503.456-.791.624-.072.024-.12.048-.144.048m-2.4-2.975 2.424 2.423c.192-.12.384-.288.528-.432 1.367-1.367 1.44-3.599.12-5.039z"/><path fill="var(--background)" d="M33.07 15.935a1.477 1.477 0 0 0-2.087 0l-9.047 9.047 1.512 1.511 9.574-8.398c.624-.528.672-1.464.144-2.088a.3.3 0 0 1-.096-.072"/><path fill="var(--text)" d="M23.424 26.733a.22.22 0 0 1-.168-.072l-1.512-1.511a.23.23 0 0 1 0-.336l9.047-9.047a1.71 1.71 0 0 1 2.423 0 1.71 1.71 0 0 1 0 2.424l-.072.072-9.574 8.398q-.036.072-.144.072m-1.152-1.751 1.176 1.175 9.406-8.254c.528-.432.576-1.224.144-1.752s-1.223-.576-1.751-.144c-.024.024-.048.048-.096.072z"/><path fill="var(--background)" d="M15.002 35.276c-.096.048-.144.144-.12.24l.408 1.727a.46.46 0 0 1-.312.6.48.48 0 0 1-.528-.144l-2.64-2.615 8.615-8.615 2.975.048 2.016 2.016c-.48.408-3.384 3.215-10.414 6.743"/><path fill="var(--text)" d="M14.81 38.083a.65.65 0 0 1-.504-.216l-2.616-2.615a.22.22 0 0 1-.072-.168c0-.072.024-.12.072-.168l8.615-8.615a.26.26 0 0 1 .168-.072l2.975.048c.072 0 .12.024.168.072l2.016 2.016c.048.048.072.12.072.192s-.024.12-.096.168l-.168.144c-2.544 2.231-6 4.463-10.294 6.599l.407 1.703a.76.76 0 0 1-.36.816.8.8 0 0 1-.383.096m-2.64-3 2.472 2.448c.072.12.216.168.336.096s.168-.216.096-.336l-.408-1.727a.44.44 0 0 1 .24-.504c4.247-2.136 7.678-4.343 10.198-6.527l-1.776-1.776-2.76-.048z"/><path fill="var(--background)" d="m9.77 37.148 2.064-2.064 3.072 3.071-4.896-.336a.38.38 0 0 1-.335-.432c0-.096.024-.191.096-.24"/><path fill="var(--text)" d="m14.906 38.371-4.92-.336c-.36-.024-.6-.336-.575-.696.024-.144.072-.288.192-.383l2.063-2.064a.233.233 0 0 1 .336 0l3.071 3.071c.073.072.096.168.049.264q-.072.144-.216.144m-3.072-2.951L9.94 37.315c-.072.048-.072.168 0 .216.023.024.047.048.095.048l4.248.288zm7.75-7.847a.24.24 0 0 1-.24-.24c0-.072.025-.12.073-.168l2.327-2.327a.23.23 0 0 1 .336 0l1.512 1.511c.072.072.096.144.072.24a.27.27 0 0 1-.192.168l-3.84.816zm2.328-2.231-1.583 1.583 2.591-.552z"/><path fill="var(--background)" d="m23.4 26.517-2.64.576a.357.357 0 0 1-.335-.6l1.463-1.463z"/><path fill="var(--text)" d="M20.713 27.333a.594.594 0 0 1-.6-.6.7.7 0 0 1 .168-.432l1.463-1.463a.233.233 0 0 1 .336 0l1.512 1.511c.072.072.096.144.072.24a.27.27 0 0 1-.192.168l-2.64.576zm1.2-1.991-1.296 1.295c-.048.048-.048.096-.024.144q.036.072.144.072l2.207-.48zm16.196-13.078c-.048-.144-.215-.216-.36-.168-.143.048-.215.216-.167.36 0 .024.024.048.024.072.144.288.096.648-.096.912a.29.29 0 0 0 .024.384.27.27 0 0 0 .384-.048c.36-.456.431-1.032.191-1.512"/></g><defs><clipPath id="clip0_102_490"><path fill="#fff" d="M0 .094h48v48H0z"/></clipPath></defs></svg>
